X: 1
T: My Wife's a Wanton Wee Thing
O: Caledonian Companion, p.41
B: Caledonian Companion, p.41 (with variations).
Z: John Chambers <jc:trillian.mit.edu>
M: 6/8
L: 1/8
K: D
   fe \
| "D"d2A dfe | d3 A2B | "C"=c>dc cGE | =c3 "A7"E2^c \
| "D"d2A dfe | d3 "A7"A2G | "D"FDF "A7"ECE | "D"D3- D :|
   FG \
| "D"A>BA FDF | A3 "C"=c3 | G>=cG E=CE | G3 "G"B3 \
| "D"A>BA FDF | A3 "G" g3 | "D"fdf "A7"ece | "D"d3- d |]
   FG \
| "D"A>BA FDF | AdA FDF | "C"G>AG E=CE | G=cG E=CE \
| "D"A>BA FDF | AFA "A7"a2g | "D"fga "A7"gfe | "D"d3- d |]
